X: 10734
T: Dr. Alasdair Mackenzie
R: reel
M: 4/4
K: Dmajor
dA A2 defa|afef dB B2|dA A2 defa|afef d2 fe|
dA A2 defa|afef dB B2|dA A2 defa|afef d2 de||
fade fade|fadf eB B2|fade fadf|edfe d3e|
fa a2 fade|dffe dB B2|dA A2 defa|afef d2 fe||

